images/client5.svg

<svg width="170" height="92" viewBox="0 0 170 92" fill="none" xmlns="http://www.w3.org/2000/svg">
<rect x="0.5" y="0.5" width="169" height="91" rx="3.5" stroke="#AFB1B8"/>
<path d="M58.7569 60.7352C59.0006 61.0114 59.1304 61.3572 59.1236 61.7122C59.136 61.9437 59.0914 62.1749 58.993 62.3885C58.8947 62.6021 58.7451 62.7927 58.5554 62.9463C58.082 63.2736 57.4956 63.4336 56.9037 63.3969H54V57.2055H56.8442C57.4057 57.1713 57.9626 57.3167 58.42 57.6168C58.6036 57.7576 58.7491 57.9355 58.8448 58.1365C58.9406 58.3376 58.984 58.5562 58.9716 58.7753C58.9883 59.1168 58.8712 59.4526 58.6413 59.722C58.4206 59.968 58.1156 60.1385 57.7758 60.2059C58.161 60.2703 58.5087 60.4579 58.7569 60.7352ZM55.3511 59.8006H56.5667C56.843 59.8193 57.1174 59.7463 57.3397 59.5949C57.431 59.5192 57.502 59.4252 57.5473 59.3203C57.5925 59.2154 57.6108 59.1024 57.6007 58.99C57.6093 58.878 57.5906 58.7657 57.5461 58.661C57.5015 58.5564 57.4322 58.4622 57.343 58.3851C57.1141 58.2294 56.8312 58.1553 56.5469 58.1764H55.3511V59.8006ZM57.4587 62.175C57.5562 62.0974 57.6329 62.0003 57.6828 61.8912C57.7326 61.7821 57.7543 61.6639 57.7461 61.5458C57.7535 61.4264 57.7309 61.307 57.6799 61.1969C57.6289 61.0868 57.551 60.9888 57.4521 60.9107C57.2142 60.7492 56.9217 60.6699 56.6262 60.6868H55.3511V62.3897H56.6427C56.9334 62.4051 57.2212 62.3293 57.4587 62.175Z" fill="#AFB1B8"/>
<path d="M64.5709 63.3969L62.9886 60.9772H62.394V63.3969H61.033V57.2055H63.6096C64.2591 57.164 64.9012 57.3524 65.4034 57.7318C65.7635 58.0678 65.9808 58.5106 66.0159 58.9803C66.051 59.45 65.9018 59.9158 65.595 60.2937C65.2771 60.6271 64.8428 60.8494 64.3661 60.9228L66.0508 63.3969H64.5709ZM62.394 60.1333H63.5072C64.2802 60.1333 64.6667 59.8208 64.6667 59.1957C64.6746 59.0681 64.6534 58.9403 64.6045 58.8205C64.5556 58.7008 64.48 58.5916 64.3826 58.5C64.1383 58.314 63.8237 58.2238 63.5072 58.249H62.3807L62.394 60.1333Z" fill="#AFB1B8"/>
<path d="M72.0102 62.1506H69.2981L68.8191 63.3968H67.392L69.8828 57.2749H71.4255L73.9063 63.3968H72.4793L72.0102 62.1506ZM71.6468 61.213L70.6558 58.5997L69.6648 61.213H71.6468Z" fill="#AFB1B8"/>
<path d="M81.3224 63.3969H79.9713L76.9421 59.1866V63.3969H75.5943V57.2054H76.9421L79.9713 61.44V57.2054H81.3224V63.3969Z" fill="#AFB1B8"/>
<path d="M89.0326 61.9149C88.7532 62.3823 88.3276 62.7626 87.8103 63.0068C87.2222 63.2788 86.5695 63.4128 85.9109 63.397H83.506V57.2055H85.9109C86.5684 57.1898 87.2202 57.3206 87.8103 57.5866C88.3275 57.8253 88.7536 58.2017 89.0326 58.6664C89.3107 59.17 89.4556 59.7263 89.4556 60.2906C89.4556 60.8549 89.3107 61.4113 89.0326 61.9149ZM87.4866 61.7667C87.8722 61.3554 88.0842 60.8312 88.0842 60.2891C88.0842 59.7471 87.8722 59.2229 87.4866 58.8116C87.0205 58.439 86.4127 58.2499 85.7952 58.2853H84.8571V62.293H85.7952C86.4127 62.3283 87.0205 62.1392 87.4866 61.7667Z" fill="#AFB1B8"/>
<path d="M72.8558 22.7667C72.8558 22.7667 90.2945 28.7949 89.9245 37.518V52.2722C89.9245 52.2722 72.4991 46.2411 72.8624 37.518L72.8558 22.7667Z" fill="#AFB1B8"/>
<path d="M105.46 48.8181C108.754 46.7428 112.563 45.4574 116.54 45.0796V40.4609C111.958 42.0779 108.071 45.0098 105.46 48.8181Z" fill="#AFB1B8"/>
<path d="M103.482 50.2095C106.177 45.2396 110.85 41.4046 116.54 39.4932V26.1847C116.54 26.1847 91.705 34.7717 92.2303 47.1939V68.2001C92.2303 68.2001 93.3369 67.816 95.0778 67.0961C95.0778 66.4247 95.0778 65.7472 95.1571 65.0666C95.6711 59.2996 98.6654 53.9556 103.482 50.2095Z" fill="#AFB1B8"/>
<path d="M101.12 58.0131C101.25 56.5563 101.541 55.1152 101.989 53.712C98.9896 56.9471 97.1734 60.9614 96.7956 65.1906C96.7592 65.5899 96.7394 65.9891 96.7295 66.4005C98.14 65.7804 99.7818 65.0061 101.506 64.0957C101.066 62.0948 100.936 60.0472 101.12 58.0131Z" fill="#AFB1B8"/>
<path d="M102.107 58.0887C101.942 59.929 102.045 61.7813 102.415 63.5966C109.2 59.8793 116.824 54.1355 116.53 47.1939V46.589C111.682 47.0856 107.147 49.026 103.62 52.112C102.795 54.0244 102.285 56.0387 102.107 58.0887Z" fill="#AFB1B8"/>
</svg>

<svg xmlns="http://www.w3.org/2000/svg" width="170" height="92" fill="none" viewBox="0 0 170 92"><rect width="169" height="91" x=".5" y=".5" stroke="#afb1b8" rx="3.5"/><path fill="#afb1b8" d="M58.757 60.735c.244.276.373.622.367.977a1.4 1.4 0 0 1-.131.676 1.56 1.56 0 0 1-.438.558 2.63 2.63 0 0 1-1.651.45H54v-6.19h2.844a2.6 2.6 0 0 1 1.576.41c.184.142.33.32.425.52.096.202.139.42.127.64.016.34-.1.677-.33.946-.221.246-.526.416-.866.484.385.064.733.252.98.53m-3.406-.934h1.216c.276.018.55-.055.773-.206a.74.74 0 0 0 .207-.275.7.7 0 0 0 .054-.33.7.7 0 0 0-.055-.329.76.76 0 0 0-.203-.276 1.25 1.25 0 0 0-.796-.209H55.35zm2.108 2.374a.8.8 0 0 0 .224-.284.7.7 0 0 0 .063-.345.7.7 0 0 0-.066-.35.8.8 0 0 0-.228-.285 1.34 1.34 0 0 0-.826-.224h-1.275v1.703h1.292c.29.015.578-.06.816-.215M64.57 63.397l-1.581-2.42h-.595v2.42h-1.361v-6.191h2.577a2.7 2.7 0 0 1 1.793.526c.36.336.578.779.613 1.248a1.86 1.86 0 0 1-.421 1.314 2.15 2.15 0 0 1-1.229.629l1.685 2.474zm-2.176-3.264h1.113q1.16 0 1.16-.937a.85.85 0 0 0-.062-.375.9.9 0 0 0-.222-.321 1.28 1.28 0 0 0-.876-.251h-1.126zM72.01 62.15h-2.712l-.479 1.247h-1.427l2.49-6.122h1.543l2.481 6.122H72.48zm-.363-.937-.991-2.613-.991 2.613zM81.322 63.397h-1.35l-3.03-4.21v4.21h-1.348v-6.192h1.348l3.03 4.235v-4.235h1.35zM89.033 61.915c-.28.467-.705.848-1.223 1.092a4.3 4.3 0 0 1-1.9.39h-2.404v-6.191h2.405a4.4 4.4 0 0 1 1.9.38c.516.24.943.616 1.222 1.08.278.504.423 1.06.423 1.625 0 .564-.145 1.12-.423 1.624m-1.546-.148a2.16 2.16 0 0 0 .597-1.478c0-.542-.212-1.066-.597-1.477a2.5 2.5 0 0 0-1.692-.527h-.938v4.008h.938a2.5 2.5 0 0 0 1.692-.526M72.856 22.767s17.439 6.028 17.069 14.751v14.754s-17.426-6.03-17.063-14.754zM105.46 48.818c3.294-2.075 7.103-3.36 11.08-3.738v-4.62c-4.582 1.618-8.469 4.55-11.08 8.358"/><path fill="#afb1b8" d="M103.482 50.21c2.695-4.97 7.368-8.805 13.058-10.717V26.185s-24.835 8.587-24.31 21.009V68.2s1.107-.384 2.848-1.104c0-.671 0-1.349.08-2.03.513-5.766 3.507-11.11 8.324-14.857"/><path fill="#afb1b8" d="M101.12 58.013c.13-1.457.421-2.898.869-4.301-3 3.235-4.816 7.25-5.193 11.479-.037.399-.057.798-.067 1.21a75 75 0 0 0 4.777-2.305c-.44-2.001-.57-4.049-.386-6.083M102.107 58.089a19 19 0 0 0 .308 5.508c6.785-3.718 14.409-9.461 14.115-16.403v-.605c-4.848.497-9.383 2.437-12.91 5.523a19.3 19.3 0 0 0-1.513 5.977"/></svg>
